X: 1
T: the Aird Rant
R: reel
Z: 2011 John Chambers <jc:trillian.mit.edu>
N: Learned from Emerald Rae at FAC session at Peacuddy's Cafe, Melrose MA 2011-5-25
M: C
L: 1/16
K: Ador
e | ea3 a3e ge3 e3d | ea3 a3e ge3 ^c3d | ea3 a3e ge3 e3d | cA3 A3G cA3 A3 :|
B | c4  B3d c3A A3G | cA3 A3G cA3  A3B | c4  B3d cA3 A3G | cA3 A3G A4  A3 :|
